src/svg/download.svg

<svg height="1000" width="1000.0" xmlns="http://www.w3.org/2000/svg">
    <path d="m421.9 0h156.2c26 0 46.9 20.9 46.9 46.9v328.1h171.3c34.8 0 52.1 42 27.5 66.6l-297 297.3c-14.7 14.6-38.7 14.6-53.4 0l-297.4-297.3c-24.6-24.6-7.3-66.6 27.5-66.6h171.5v-328.1c0-26 20.9-46.9 46.9-46.9z m578.1 734.4v218.7c0 26-20.9 46.9-46.9 46.9h-906.2c-26 0-46.9-20.9-46.9-46.9v-218.7c0-26 20.9-46.9 46.9-46.9h286.5l95.7 95.7c39.3 39.3 102.5 39.3 141.8 0l95.7-95.7h286.5c26 0 46.9 20.9 46.9 46.9z m-242.2 171.9c0-21.5-17.6-39.1-39-39.1s-39.1 17.6-39.1 39.1 17.6 39 39.1 39 39-17.6 39-39z m125 0c0-21.5-17.6-39.1-39-39.1s-39.1 17.6-39.1 39.1 17.6 39 39.1 39 39-17.6 39-39z" />
  </svg>

<svg height="1000" width="1000" xmlns="http://www.w3.org/2000/svg"><path d="M421.9 0h156.2c26 0 46.9 20.9 46.9 46.9V375h171.3c34.8 0 52.1 42 27.5 66.6l-297 297.3c-14.7 14.6 -38.7 14.6 -53.4 0L176 441.6C151.4 417 168.8 375 203.5 375H375V46.9C375 20.9 395.9 0 421.9 0zM1000 734.4v218.7c0 26 -20.9 46.9 -46.9 46.9H46.9C20.9 1000 0 979.1 0 953.1V734.4c0 -26 20.9 -46.9 46.9 -46.9h286.5l95.7 95.7c39.3 39.3 102.5 39.3 141.8 0l95.7 -95.7h286.5c26 0 46.9 20.9 46.9 46.9zM757.8 906.3c0 -21.5 -17.6 -39.1 -39 -39.1s-39.1 17.6 -39.1 39.1 17.6 39 39.1 39 39 -17.6 39 -39zm125 0c0 -21.5 -17.6 -39.1 -39 -39.1s-39.1 17.6 -39.1 39.1 17.6 39 39.1 39 39 -17.6 39 -39z"/></svg>
